svg/后退15秒.svg

<svg width="24" height="26" viewBox="0 0 24 26" fill="none" xmlns="http://www.w3.org/2000/svg"><path d="M9.75 17.8125V10.3125L8.25 11.7188" stroke="black" stroke-width="1.125" stroke-linecap="round" stroke-linejoin="round"/><path d="M12.75 17.3439C13.1417 17.6382 13.6286 17.8125 14.1562 17.8125C15.4507 17.8125 16.5 16.7632 16.5 15.4687C16.5 14.1743 15.4507 13.125 14.1562 13.125C13.6286 13.125 13.1417 13.2993 12.75 13.5936L13.2188 10.3125H16.5" stroke="black" stroke-width="1.125" stroke-linecap="round" stroke-linejoin="round"/><path d="M4.83904 6.12771C0.597948 10.0566 0.365929 16.6571 4.32082 20.8703C8.2757 25.0836 14.9199 25.3141 19.161 21.3852C23.4021 17.4563 23.6341 10.8558 19.6792 6.64253C17.4296 4.24604 14.31 3.1381 11.2574 3.35123M12.75 0.9375L10.0757 3.4708L12.75 6.1875" stroke="black" stroke-width="1.875" stroke-linecap="round" stroke-linejoin="round"/></svg>

<svg fill="none" viewBox="0 0 24 26"><path stroke="black" stroke-linecap="round" stroke-linejoin="round" stroke-width="1.125" d="M9.75 17.813v-7.5l-1.5 1.406"/><path stroke="black" stroke-linecap="round" stroke-linejoin="round" stroke-width="1.125" d="M12.75 17.344a2.344 2.344 0 1 0 0-3.75l.469-3.282H16.5"/><path stroke="black" stroke-linecap="round" stroke-linejoin="round" stroke-width="1.875" d="M4.839 6.128a10.383 10.383 0 0 0-.518 14.742c3.955 4.214 10.599 4.444 14.84.515a10.383 10.383 0 0 0 .518-14.742 10.52 10.52 0 0 0-8.422-3.292M12.75.938 10.076 3.47l2.674 2.717"/></svg>
